X:1
T:Bourre Tournante du Val de Loire
M:3/8
R:Bourree
B:On Bouge tune book vol 1 number 57
L:1/8
Z:Dave Holland <dave@biff.org.uk>
N:originally in G
K:C
GAB|c2d|c/B/AG|c3|ABc|d2e|d/c/BA|G3:|
e2d|cBA|d2c|BAG|B2A|GAB|1cd^d|e3:|2ced|c3|]
